icon/lg/styleci.svg

<?xml version="1.0" encoding="UTF-8" standalone="no"?>
<svg viewBox="0 0 256 256" version="1.1" xmlns="http://www.w3.org/2000/svg" xmlns:xlink="http://www.w3.org/1999/xlink" preserveAspectRatio="xMidYMid" height="1em" width="1em">
  <g>
    <rect fill="#E44041" x="0" y="0" width="256" height="256"/>
    <path d="M153.490604,185.360812 C146.714217,187.870585 135.420238,189.878403 125.381146,189.878403 C94.0089842,189.878403 73.9308002,168.79631 73.9308002,128.388965 C73.9308002,84.718915 97.271689,65.6446402 125.130169,65.6446402 C137.428057,65.6446402 146.714217,68.4053905 153.239627,71.417118 L161.2709,35.5273642 C155.7494,32.5156367 142.196625,28.5 122.620396,28.5 C72.6759137,28.5 27.5,61.3780262 27.5,130.898738 C27.5,184.60788 56.6133667,227.524998 118.102805,227.524998 C137.177079,227.524998 152.235717,224.011316 159.012104,220.999588 L153.490604,185.360812 L153.490604,185.360812 Z M184.360812,225.015225 L228.532816,225.015225 L228.532816,31.009773 L184.360812,31.009773 L184.360812,225.015225 L184.360812,225.015225 Z" fill="#FFFFFF"/>
  </g>
</svg>

<svg width="256" height="256" xmlns="http://www.w3.org/2000/svg" preserveAspectRatio="xMidYMid"><path fill="#E44041" d="M0 0h256v256H0z"/><path d="M153.49 185.36c-6.776 2.51-18.07 4.518-28.109 4.518-31.372 0-51.45-21.082-51.45-61.489 0-43.67 23.34-62.744 51.2-62.744 12.297 0 21.583 2.76 28.109 5.772l8.03-35.89c-5.52-3.011-19.073-7.027-38.65-7.027-49.944 0-95.12 32.878-95.12 102.399 0 53.709 29.113 96.626 90.603 96.626 19.074 0 34.133-3.514 40.91-6.525l-5.522-35.64Zm30.87 39.655h44.173V31.01H184.36v194.005Z" fill="#FFF"/></svg>
